Numix-GalliumOS/24/actions/format-text-none.svg

<?xml version="1.0" encoding="UTF-8" standalone="no"?>
<svg
   xmlns:dc="http://purl.org/dc/elements/1.1/"
   xmlns:cc="http://creativecommons.org/ns#"
   xmlns:rdf="http://www.w3.org/1999/02/22-rdf-syntax-ns#"
   xmlns:svg="http://www.w3.org/2000/svg"
   xmlns="http://www.w3.org/2000/svg"
   xmlns:sodipodi="http://sodipodi.sourceforge.net/DTD/sodipodi-0.dtd"
   xmlns:inkscape="http://www.inkscape.org/namespaces/inkscape"
   width="24"
   viewBox="0 0 24 24"
   height="24"
   id="svg2"
   version="1.1"
   inkscape:version="0.91 r13725"
   sodipodi:docname="format-text-none.svg">
  <metadata
     id="metadata14">
    <rdf:RDF>
      <cc:Work
         rdf:about="">
        <dc:format>image/svg+xml</dc:format>
        <dc:type
           rdf:resource="http://purl.org/dc/dcmitype/StillImage" />
        <dc:title></dc:title>
      </cc:Work>
    </rdf:RDF>
  </metadata>
  <defs
     id="defs12" />
  <sodipodi:namedview
     pagecolor="#ffffff"
     bordercolor="#666666"
     borderopacity="1"
     objecttolerance="10"
     gridtolerance="10"
     guidetolerance="10"
     inkscape:pageopacity="0"
     inkscape:pageshadow="2"
     inkscape:window-width="1366"
     inkscape:window-height="704"
     id="namedview10"
     showgrid="true"
     inkscape:zoom="19.666667"
     inkscape:cx="7.2946342"
     inkscape:cy="12"
     inkscape:window-x="0"
     inkscape:window-y="27"
     inkscape:window-maximized="1"
     inkscape:current-layer="svg2">
    <inkscape:grid
       type="xygrid"
       id="grid4142" />
  </sodipodi:namedview>
  <g
     style="color:#000000;line-height:normal;fill:#268bd2"
     id="g4"
     transform="translate(0,1.999997)">
    <path
       d="m 5.9999995,3.0000035 0,3 9.0000005,0 c 0.68505,0 2.067,0.4639692 2,0.9999999 l 0,1 -8.0000005,0 c -4,0 -5.0000001,1.9999996 -4.9998001,4.7999996 -2e-4,2.2 0.9998001,4.2 4.7999335,4.2 l 9.5998831,0 1.599984,0 0,-1.4 0,-8.3999996 C 20,4.9119266 17.888333,3.0000035 15.20005,3.0000035 Z m 3,7.9999995 8.0000005,0 0,3 -8.0000005,0 c -1,0 -2,0 -2,-1.439692 0,-1.560308 1,-1.560308 2,-1.560308 z"
       id="path6"
       inkscape:connector-curvature="0" />
  </g>
  <path
     style="fill:#dc322f;fill-opacity:1"
     d="M 22,20.4215 19.4215,17.843 22,15.2645 19.4215,12.686 16.843,15.2645 14.2645,12.686 11.686,15.2645 14.2645,17.843 11.686,20.4215 14.2645,23 16.843,20.4215 19.4215,23 Z"
     id="path6-9"
     inkscape:connector-curvature="0" />
</svg>

<svg xmlns="http://www.w3.org/2000/svg" viewBox="0 0 24 24">
 <g transform="translate(0,1.999997)" style="fill:#268bd2;color:#000">
  <path d="m 6 3 0 3 9 0 c 0.685 0 2.067 0.464 2 1 l 0 1 -8 0 c -4 0 -5 2 -5 4.8 0 2.2 1 4.2 4.8 4.2 l 9.6 0 1.6 0 0 -1.4 0 -8.4 c 0 -2.288 -2.112 -4.2 -4.8 -4.2 m -6.2 8 8 0 0 3 -8 0 c -1 0 -2 0 -2 -1.44 0 -1.56 1 -1.56 2 -1.56 z"/>
 </g>
 <path d="m 22 20.422 -2.578 -2.579 2.578 -2.579 -2.578 -2.579 -2.579 2.579 -2.579 -2.579 -2.579 2.579 2.579 2.579 -2.579 2.579 2.579 2.578 2.579 -2.578 2.579 2.578" style="fill:#dc322f;fill-opacity:1"/>
</svg>
